frontend/public/svg/arrows/arrow-down.svg

<svg width="85" height="150" viewBox="0 0 85 150" fill="none" xmlns="http://www.w3.org/2000/svg">
<path d="M42.6677 67.3228C42.8134 49.3267 42.9303 31.3306 43.1272 13.3345C43.1672 9.74757 43.4488 6.15537 43.7999 2.58292C43.8642 1.9919 44.1053 1.43407 44.4917 0.982297C44.8781 0.530521 45.3919 0.205883 45.9658 0.0508296C46.8847 -0.242553 48.1882 0.777404 48.3798 1.99557C48.5662 3.17698 48.8537 4.35241 48.9253 5.53973C49.3847 13.1224 50.0351 20.7045 50.1723 28.2943C50.4526 43.8876 50.5227 59.4855 50.5405 75.0821C50.5575 89.8792 50.3731 104.677 50.3383 119.474C50.3331 121.85 50.6317 124.227 50.8437 126.599C50.8826 126.757 50.9605 126.902 51.07 127.021C51.1795 127.141 51.3172 127.231 51.4706 127.283C51.8375 127.326 52.455 127.218 52.5863 126.974C55.0587 122.427 57.6591 117.936 59.8651 113.26C64.9963 102.382 71.2893 92.1783 77.6033 81.9815C78.6409 80.3058 79.695 78.5494 81.7539 77.8734C82.1287 77.7507 82.7706 77.5591 82.896 77.7153C83.4175 78.2747 83.7925 78.9546 83.9875 79.6941C84.0804 80.4818 83.9529 81.2797 83.6193 81.9992C82.4648 84.5471 81.2604 87.0766 79.9661 89.5556C70.7156 107.273 61.4101 124.962 52.1846 142.692C48.706 149.38 45.3325 152.558 37.6842 144.53C35.4802 142.217 33.2781 139.877 31.3177 137.362C22.2164 125.698 13.1708 113.99 4.18075 102.241C3.02181 100.625 1.99039 98.9214 1.09592 97.1455C0.467146 95.987 0.840624 94.8273 1.5941 93.827C2.42437 92.7263 4.83842 92.0431 5.89971 92.4224C8.25597 93.2658 9.98469 94.9461 11.5501 96.7503C17.5765 103.698 23.5595 110.682 29.499 117.704C33.3805 122.267 37.205 126.878 41.0945 131.433C41.2868 131.658 41.8821 131.67 42.2404 131.578C42.3955 131.518 42.5337 131.422 42.6433 131.297C42.7528 131.172 42.8303 131.022 42.8692 130.86C43.0261 128.48 43.2243 126.094 43.2119 123.711C43.1125 104.914 42.9887 86.1175 42.8404 67.3208L42.6677 67.3228Z" fill="black"/>
</svg>

<svg xmlns="http://www.w3.org/2000/svg" width="85" height="150" fill="none" viewBox="0 0 85 150"><path fill="#000" d="M42.668 67.323c.145-17.996.262-35.992.46-53.988.04-3.587.32-7.18.672-10.752A2.95 2.95 0 0 1 45.966.05c.919-.294 2.222.726 2.414 1.945.186 1.181.474 2.356.545 3.544.46 7.582 1.11 15.165 1.247 22.754.28 15.594.35 31.192.369 46.788.017 14.797-.168 29.595-.203 44.392-.005 2.376.294 4.753.506 7.125a.96.96 0 0 0 .627.684c.367.043.984-.065 1.115-.309 2.473-4.547 5.073-9.038 7.28-13.714 5.13-10.878 11.423-21.082 17.737-31.279 1.038-1.675 2.092-3.432 4.15-4.108.376-.122 1.018-.314 1.143-.158.522.56.897 1.24 1.091 1.98a4.3 4.3 0 0 1-.368 2.304 151 151 0 0 1-3.653 7.557c-9.25 17.717-18.556 35.406-27.781 53.136-3.479 6.688-6.852 9.866-14.5 1.838-2.205-2.313-4.407-4.653-6.367-7.168a4690 4690 0 0 1-27.138-35.12 38 38 0 0 1-3.085-5.096c-.629-1.158-.255-2.318.498-3.318.83-1.1 3.244-1.784 4.306-1.405 2.356.844 4.085 2.524 5.65 4.328A2219 2219 0 0 1 29.5 117.704c3.881 4.563 7.706 9.174 11.595 13.729.193.225.788.237 1.146.145a1.03 1.03 0 0 0 .63-.718c.156-2.38.354-4.766.342-7.149q-.15-28.195-.372-56.39z"/></svg>
